X:488
T:Polska # 488
T: efter Melker Andersson
M:3/4
L:1/16
K: G
Q: 110
|: B2d2 BdBG G2g2 | agfg e2c2 c4 | c2a2 fafd B2d2 | [1 ecAF F2G2 G4 :| [2 ecAF F2G2 G2Bc |]
|: d2b2 abad d2B2| e2a2 fafd d2(Bc)| d2g2 egec B2(cd)|1 (ec)AF F2G2 G2Bc :|2 (ec)AF F2G2 G4 |]

